material/.icons/material/iframe-array-outline.svg

<svg xmlns="http://www.w3.org/2000/svg" viewBox="0 0 24 24"><path d="M21 2H3c-1.1 0-2 .9-2 2v16c0 1.1.9 2 2 2h18c1.1 0 2-.9 2-2V4c0-1.1-.9-2-2-2m0 18H3V6h18v14M6 8v10h4v-2H8v-6h2V8H6m10 8h-2v2h4V8h-4v2h2v6"/></svg>

<?xml version="1.0" encoding="UTF-8"?><!DOCTYPE svg PUBLIC "-//W3C//DTD SVG 1.1//EN" "http://www.w3.org/Graphics/SVG/1.1/DTD/svg11.dtd"><svg xmlns="http://www.w3.org/2000/svg" xmlns:xlink="http://www.w3.org/1999/xlink" version="1.1" id="mdi-iframe-array-outline" width="24" height="24" viewBox="0 0 24 24"><path d="M21 2H3C1.9 2 1 2.9 1 4V20C1 21.1 1.9 22 3 22H21C22.1 22 23 21.1 23 20V4C23 2.9 22.1 2 21 2M21 20H3V6H21V20M6 8V18H10V16H8V10H10V8H6M16 16H14V18H18V8H14V10H16V16" /></svg>
